dist/svg/key-app-o.svg

<!-- Generated by Trend Micro Style Portal -->
<svg version="1.1" xmlns="http://www.w3.org/2000/svg" width="16" height="16" viewBox="0 0 16 16">
  <title>key-app-o</title>
  <path fill="rgb(34,34,34)" d="M8 12h3v3h-3v-3zM8 11h3v-3h-3v3zM14 0h-5c-1.1 0-2 0.9-2 2v4l-2 2h-2v2h-2v2l-1 1v3h3l4-4v-1.4l-4.4 4.4h-1.6v-1.6l1-1v-1.4h2v-2h1.4l2.6-2.6v-4.4c0-0.6 0.4-1 1-1h5c0.6 0 1 0.4 1 1v5c0 0.6-0.4 1-1 1h-2v3h3v-2.27c0.6-0.35 1-0.99 1-1.73v-5c0-1.1-0.9-2-2-2zM12 15h3v-3h-3v3zM12.5 5c-0.8 0-1.5-0.7-1.5-1.5s0.7-1.5 1.5-1.5 1.5 0.7 1.5 1.5-0.7 1.5-1.5 1.5zM12.5 4c0.3 0 0.5-0.2 0.5-0.5s-0.2-0.5-0.5-0.5-0.5 0.2-0.5 0.5 0.2 0.5 0.5 0.5z"></path>
</svg>

<svg width="16" height="16" viewBox="0 0 16 16" fill="rgb(34, 34, 34)" xmlns="http://www.w3.org/2000/svg"><title>key-app-o</title><g clip-path="url(#clip0_106_3956)"><path d="M8 12H11V15H8V12ZM8 11H11V8H8V11ZM14 0H9C7.9 0 7 0.9 7 2V6L5 8H3V10H1V12L0 13V16H3L7 12V10.6L2.6 15H1V13.4L2 12.4V11H4V9H5.4L8 6.4V2C8 1.4 8.4 1 9 1H14C14.6 1 15 1.4 15 2V7C15 7.6 14.6 8 14 8H12V11H15V8.73C15.6 8.38 16 7.74 16 7V2C16 0.9 15.1 0 14 0ZM12 15H15V12H12V15ZM12.5 5C11.7 5 11 4.3 11 3.5C11 2.7 11.7 2 12.5 2C13.3 2 14 2.7 14 3.5C14 4.3 13.3 5 12.5 5ZM12.5 4C12.8 4 13 3.8 13 3.5C13 3.2 12.8 3 12.5 3C12.2 3 12 3.2 12 3.5C12 3.8 12.2 4 12.5 4Z" fill="rgb(34, 34, 34)" fill-opacity="1.00"/></g><defs><clipPath id="clip0_106_3956"><rect width="16" height="16" fill="rgb(34, 34, 34)"/></clipPath></defs></svg>
